X: 41868
T: Vital Mental Medicine
R: reel
M: 4/4
K: Aminor
|:EAcA BAG^F|^FdA=F dA (3Bcd|edcA dcBd|cBAc AAG2:|
|:Aeae gee^f|eege ecce|dcgc eccc|dccd cBAG:|

